!!!OTL: Der Bauernknecht
!!!ARE: Europa, Mitteleuropa, Deutschland
!!!SCT: A0453
!!!YEM: Copyright 1995, estate of Helmut Schaffrath.
**kern
*ICvox
*Ivox
*M3/2
*k[b-e-]
*g:
{2g
2g
2g
=1
1b-
2b-
=2
1cc
2cc
=3
1.dd}
=4
{2dd
2ee-
2ffn
=5
1ee-
2dd
=6
1dd
2cc
=7
1.b-}
=8
{2dd
2dd
2dd
=9
1cc
2cc
=10
1b-
2b-
=11
1.a}
=12
{2g
2g
2g
=13
1f#
2d
=14
2.g
4a
4b-
4cc
=15
1.a}
=16
{2.g
4a
2g
=17
1f#
2f#
=18
2g
2a
2b-
=19
1cc
2b-}
=20
{2b-
2b-
2cc
=21
1dd
2b-
=22
2cc
2cc
2b-
=23
1.a
=24
1.g}
==
!!!AGN: Romanze, Ballade, Lied
!! Joh. Hecks Lieder - Hs. 1679 S. 108.
!!!ONB: ESAC (Essen Associative Code) Database: ALTDEU
!!!AMT: simple triple
!!!AIN: vox
!!!EED: Helmut Schaffrath
!!!EEV: 1.0
*-
